icon-themes/breeze_svg/cmd/lc_solidcreate.svg

<svg viewBox="0 0 24 24" xmlns="http://www.w3.org/2000/svg"><path d="m12 18c-.552285 0-1 .4477-1 1s.447715 1 1 1 1-.4477 1-1-.447715-1-1-1zm4 0c-.552285 0-1 .4477-1 1s.447715 1 1 1 1-.4477 1-1-.447715-1-1-1zm4 0c-.552285 0-1 .4477-1 1s.447715 1 1 1 1-.4477 1-1-.447715-1-1-1z" fill="#f47750"/><path d="m15.996094 4-11.9921878 11.992188h-.0039062v4.007812h1 2 1.0078125l11.9902345-11.9960938-3.998047-4h-.001953-.001953zm-1.998047 3.4121094 2.589844 2.5898436-7.587891 7.587891v-1.589844h-1-1v-1-.589844zm-7.998047 7.9980466v1.589844h1 1v1 .589844l-.4101562.410156h-1.5898438l-1-1v-1.589844z" fill="#4d4d4d"/></svg>

<svg xmlns="http://www.w3.org/2000/svg" viewBox="0 0 24 24">
 <path 
     style="fill:#f47750" 
     d="M 12 18 C 11.447715 18 11 18.4477 11 19 C 11 19.5523 11.447715 20 12 20 C 12.552285 20 13 19.5523 13 19 C 13 18.4477 12.552285 18 12 18 z M 16 18 C 15.447715 18 15 18.4477 15 19 C 15 19.5523 15.447715 20 16 20 C 16.552285 20 17 19.5523 17 19 C 17 18.4477 16.552285 18 16 18 z M 20 18 C 19.447715 18 19 18.4477 19 19 C 19 19.5523 19.447715 20 20 20 C 20.552285 20 21 19.5523 21 19 C 21 18.4477 20.552285 18 20 18 z "
     />
 <path 
     style="fill:#4d4d4d" 
     d="M 15.996094 4 L 4.0039062 15.992188 L 4 15.992188 L 4 20 L 5 20 L 7 20 L 8.0078125 20 L 19.998047 8.0039062 L 16 4.0039062 L 15.998047 4.0039062 L 15.996094 4.0039062 L 15.996094 4 z M 13.998047 7.4121094 L 16.587891 10.001953 L 9 17.589844 L 9 16 L 8 16 L 7 16 L 7 15 L 7 14.410156 L 13.998047 7.4121094 z M 6 15.410156 L 6 17 L 7 17 L 8 17 L 8 18 L 8 18.589844 L 7.5898438 19 L 6 19 L 5 18 L 5 16.410156 L 6 15.410156 z "
     />
 </svg>
